X: 28016
T: Moving Cloud, The
R: reel
M: 4/4
K: Fmajor
|:CFAF ^CFAF|CFAF GFDF|GABc Acfa|gfdc AGFD|
CFAF ^CFAF|CFAF GFDF|GABc d2fd|cAGA F4:|
|:c2fc acfc|c/c/c ac gcfc|d2gd bdgd|d/d/d bg agfd|
c2fc acfc|c/c/c af g2ga|bagf agfd|cAGA F4:|
|:Ac c/c/c dc c/c/c|Ac c/c/c dc=Bc|_Bd d/d/d fd d/d/d|Bd d/d/d gfec|
Ac c/c/c dc c/c/c|Ac c/c/c gfga|bagf agfd|cAGA F4:|

